X:1
T:Title
%%score { ( 1 3 ) | ( 2 4 ) }
L:1/8
M:4/4
K:G
V:1 treble nm="Grand Piano"
V:3 treble 
V:2 bass 
V:4 bass 
V:1
 z4[Q:1/4=100] d4 | B2 [DG]2 E2 F2 | G4 [=Fd]4 | [Ec]2 [DB]2 [^CA]2 [EG]2 | A4 A4 | %5
 B2 B2 [Dd]2 [B,EG]2 |[M:9/8] .[CEA]3 A, [^DB]2- [DB]dc |[M:4/4] [DB]2 [EA]2 [B,DG]2 [A,DF]2 | %8
[M:2/4] [G,B,DG]4 |] %9
V:2
 z4 [D,F,D]4 | [G,D]2 [B,,G,]2 [C,C]2 [D,CD]2 | [G,B,D]4 [B,,G,]4 | %3
 [C,G,]2 [D,G,]2 [E,G,]2 [^C,A,]2 | [D,F,D]4 [D,F,D]4 | [G,D]2 [G,D]2 [B,,G,]2 E,2 | %6
[M:9/8] z E,A, z [B,,F,]2- [B,,F,] [A,,F,]2 |[M:4/4] [G,,G,]2 G,A, D,2 D,2 |[M:2/4] G,,4 |] %9
V:3
 x8 | x8 | x8 | x8 | x8 | x8 |[M:9/8] z2 [Ec]- [Ec] z z z =D2 |[M:4/4] x8 |[M:2/4] x4 |] %9
V:4
 x8 | x8 | x8 | x8 | x8 | x8 |[M:9/8] C,2 A,,- A,, z z z3 |[M:4/4] z2 C,2 z4 |[M:2/4] x4 |] %9

